tools/download-figma-icons/icons/outlined-medium/motorcycle.svg

<svg width="24" height="24" viewBox="0 0 24 24" fill="none" xmlns="http://www.w3.org/2000/svg">
<path d="M19.5001 11.2435C18.8807 11.2435 18.2912 11.3694 17.7534 11.5967C17.4302 10.8325 17.1512 10.0457 16.9097 9.28826C17.2945 9.51625 17.8667 9.7015 18.7224 9.736C19.1454 9.75325 19.5001 9.40676 19.5001 8.98302V7.49882C19.5001 7.07583 19.1454 6.72859 18.7224 6.74584C17.3687 6.80134 16.723 7.23032 16.4125 7.61656C16.324 7.30007 16.2415 6.99708 16.165 6.71809C15.6483 4.82215 15.4548 4.11267 14.8563 3.88768C13.4666 3.36494 11.7664 4.48991 11.5774 4.6204C11.2361 4.8544 11.1499 5.32013 11.3824 5.66212C11.6149 6.00261 12.0799 6.08961 12.4241 5.85937C12.7803 5.61712 13.6143 5.20014 14.1596 5.25414C14.3028 5.59087 14.5203 6.3896 14.716 7.10733C11.3869 7.32332 10.2492 8.81577 9.87869 9.619C7.856 10.045 7.12552 8.80228 7.04902 8.65828C7.03027 8.62003 7.00703 8.58328 6.98228 8.54803C6.88178 8.41229 5.92856 7.23107 3.0884 7.52057C0.895464 7.74556 -0.0427571 8.83752 0.00149156 9.82074C0.0359905 10.5962 0.71247 11.4782 2.38942 11.7737C0.971962 12.5327 0.00449147 14.0281 0.00449147 15.7471C0.00449147 18.2302 2.02268 20.2499 4.5036 20.2499C6.59979 20.2499 8.36073 18.8055 8.85797 16.86C9.41595 17.0565 10.1832 17.2358 11.1469 17.2358C11.8924 17.2358 12.7518 17.1285 13.7163 16.8405C14.0591 16.7385 14.2818 16.4078 14.2488 16.0516C14.2458 16.0216 14.0231 13.2661 16.174 11.7114C16.2692 11.9514 16.3675 12.1899 16.471 12.4269C15.571 13.2511 15.0018 14.4316 15.0018 15.7463C15.0018 18.2295 17.02 20.2492 19.5009 20.2492C21.9818 20.2492 24 18.2295 24 15.7463C24 13.2631 21.9818 11.2435 19.5009 11.2435H19.5001ZM4.5036 18.7492C2.84915 18.7492 1.50445 17.403 1.50445 15.7471C1.50445 14.0911 2.8499 12.7449 4.5036 12.7449C5.89706 12.7449 7.06102 13.7049 7.39626 14.9963H5.79506C5.53557 14.5501 5.05709 14.2464 4.5036 14.2464C3.67563 14.2464 3.00365 14.9183 3.00365 15.7471C3.00365 16.5758 3.67488 17.2478 4.5036 17.2478C5.05709 17.2478 5.53557 16.944 5.79581 16.497H7.39701C7.06177 17.7885 5.89781 18.7485 4.50435 18.7485L4.5036 18.7492ZM12.7443 15.5468C10.8087 15.9938 9.5202 15.5558 8.97946 15.2971C8.97796 15.2806 8.97496 15.2648 8.97271 15.2483C8.78297 13.3509 7.49301 10.4342 3.52938 10.3817C2.02718 10.363 1.5052 9.88149 1.4992 9.754C1.49395 9.6355 1.91618 9.14951 3.24064 9.01377C4.99559 8.83227 5.64957 9.33176 5.75756 9.42251C6.27955 10.3577 7.8965 11.7662 10.6557 10.9697C10.9174 10.8932 11.1214 10.6607 11.1821 10.3945C11.1979 10.3232 11.6186 8.71303 15.13 8.59078C15.2845 9.12702 15.4555 9.68725 15.6453 10.258C13.1868 11.7767 12.7871 14.3476 12.7443 15.5461V15.5468ZM19.5001 18.7492C17.8457 18.7492 16.501 17.403 16.501 15.7471C16.501 15.0316 16.7627 14.3829 17.182 13.8661C17.4565 14.3604 17.7564 14.8328 18.0864 15.2686C18.0354 15.4201 18.0009 15.5791 18.0009 15.7471C18.0009 16.5758 18.6722 17.2478 19.5009 17.2478C20.3296 17.2478 21.0008 16.5758 21.0008 15.7471C21.0008 14.9183 20.3296 14.2464 19.5009 14.2464C19.4041 14.2464 19.3104 14.2576 19.2189 14.2749C18.9234 13.8714 18.6519 13.4289 18.4014 12.9601C18.7427 12.8252 19.1117 12.7449 19.5009 12.7449C21.1553 12.7449 22.5 14.0911 22.5 15.7471C22.5 17.403 21.1546 18.7492 19.5009 18.7492H19.5001Z" fill="black"/>
</svg>

<svg xmlns="http://www.w3.org/2000/svg" width="24" height="24" fill="none" viewBox="0 0 24 24"><path fill="currentColor" d="M19.5 11.244c-.62 0-1.209.125-1.747.353a27 27 0 0 1-.843-2.309c.384.228.957.413 1.812.448a.754.754 0 0 0 .778-.753V7.499a.754.754 0 0 0-.778-.753c-1.353.055-1.999.484-2.31.87-.088-.316-.17-.619-.247-.898-.517-1.896-.71-2.605-1.309-2.83-1.39-.523-3.09.602-3.279.732a.75.75 0 0 0 .847 1.24c.356-.243 1.19-.66 1.736-.606.143.337.36 1.136.556 1.853-3.33.216-4.467 1.709-4.837 2.512-2.023.426-2.753-.817-2.83-.96a1 1 0 0 0-.067-.111c-.1-.136-1.053-1.317-3.894-1.027-2.193.225-3.13 1.317-3.087 2.3.035.775.711 1.657 2.388 1.953a4.51 4.51 0 0 0-2.385 3.973 4.506 4.506 0 0 0 4.5 4.503 4.504 4.504 0 0 0 4.354-3.39 6.9 6.9 0 0 0 2.289.376 9 9 0 0 0 2.57-.396.75.75 0 0 0 .532-.788c-.003-.03-.226-2.786 1.925-4.34q.142.36.297.715a4.5 4.5 0 0 0-1.47 3.32 4.506 4.506 0 0 0 4.5 4.502c2.48 0 4.499-2.02 4.499-4.503a4.506 4.506 0 0 0-4.5-4.503M4.504 18.749a3.003 3.003 0 0 1 0-6.004c1.393 0 2.557.96 2.892 2.251h-1.6a1.49 1.49 0 0 0-1.292-.75 1.5 1.5 0 0 0 0 3.002c.553 0 1.032-.304 1.292-.751h1.601a2.996 2.996 0 0 1-2.893 2.252m8.24-3.202c-1.935.447-3.224.009-3.765-.25l-.006-.049c-.19-1.897-1.48-4.814-5.444-4.866-1.502-.019-2.024-.5-2.03-.628-.005-.118.417-.604 1.742-.74 1.755-.182 2.409.318 2.517.409.522.935 2.138 2.343 4.898 1.547a.79.79 0 0 0 .526-.575c.016-.072.437-1.682 3.948-1.804.154.536.325 1.096.515 1.667-2.458 1.519-2.858 4.09-2.9 5.288m6.756 3.202a3.003 3.003 0 0 1-2.999-3.002c0-.715.262-1.364.681-1.88.274.493.574.966.904 1.402-.05.151-.085.31-.085.478a1.5 1.5 0 1 0 1.218-1.472 11 11 0 0 1-.818-1.315c.342-.135.71-.215 1.1-.215a3.003 3.003 0 0 1 0 6.004"/></svg>
